!!!OTL: No_130_Song_of_Cīmau'ganīc.krn
!!!REG: Great_Lakes
!!!LANG: Non-Tone
!!!LING_GROUP: Algonquin
!!!SOCIAL_FUNCTION: war songs
**kern
*staff1
=1-
*clefF4
*k[f#c#g#d#]
*M5/8
4.g#\
8f#\L
8e\J
=2
4.f#\
8e\L
8c#\J
=3
4.e\
8c#\L
8B\J
=4
4.c#\
8B\L
8G#\J
=5
4.B\
8c#\L
8B\J
=6||
*M4/8
16G#\LL
[16G#\JJ
4G#\]
16.G#\LL
32G#\JJk
=7
4.G#\
16r
16g#\
=8||
*M5/8
8g#\L
8e\J
4c#\
8e\
=9||
*M4/8
8c#\
8B\
4G#\
=10||
*M5/8
4.c#\
8B\L
8G#\J
=11
4.B\
16c#\LK
8.B\J
=12||
*M7/8
16G#\LL
[16G#\J
8.G#\]
16G#\Jk
4G#\
4G#\
=13||
*M5/8
4.g#\
8g#\L
8e\J
=14
4.f#\
8e\L
8c#\J
=15||
*M3/4
4e\
*clefG2
4cc#\
4b\
=16||
*M5/8
4.cc#\
8b/L
8g#/J
=17||
*M4/8
4b\
4g#/
=18
4g#/
4G#/
*clefF4
=19
4.r
8g#\
=20||
*M5/8
8g#\L
8e\J
4c#\
8e\
=21||
*M4/8
8c#\
8B\
4G#\
=22||
*M5/8
4.c#\
8B\L
8G#\J
=23
4.B\
16c#\LK
8.B\J
=24||
*M6/8
16G#\LL
16G#\J
8.G#\
16G#\Jk
4.G#\
=25||
*M5/8
4.g#\
8f#\L
8e\J
=26||
*M3/8
4.f#\
*clefG2
=27
4cc#\
8dd#\
=28||
*M4/8
4ee\
8cc#\
8b\
*clefF4
=29||
*clefF4
*M5/8
4.E\
8D#/L
8BB/J
=30
4.D#\
16E/LL
[16BB/J
8BB/J]
=31||
*M3/8
[4.BB/
=32||
*M5/8
4.BB/]
8.BBB/L
16BB/Jk
=33
8BB/L
8GG#/J
4EE/
8GG#/
=34||
*M4/8
8c#\
8B\
4G#\
=35||
*M5/8
4.c#\
8B\L
8G#\J
=36
4.B\
c#q/
16B\LL
16G#\J
8G#\J
=37||
*M6/8
16G#\LL
16G#\J
8.G#\
16G#\Jk
4.G#\
=38!|:
*M5/8
4.g#\
8g#\L
8e\J
=39
4.f#\
8e\L
8c#\J
=40
4.e\
8c#\L
8B\J
=41
4.c#\
8B\L
8G#\J
=42
4.B\
(8B\L
8G#\J)
=43
8G#\L
8.G#\
16G#\K
8.G#\
16g#\Jk
=44
8g#\L
8e\J
4c#\
8e\
=45||
*M4/8
8c#\
8B\
4G#\
=46||
!!pagebreak:default
*M5/8
4.c#\
8B\L
8G#\J
=47
4.B\
(16c#\LK
8.B\J)
=48
8G#\L
8.G#\
16G#\Jk
4G#\
=49:|!
*M6/8
4.g#\
8g#\L
8e\
*clefG2
8cc#\J
=50||
*M4/8
4cc#\
8b\
8g#/
=51
4b\
16cc#/LL
16g#/JJ
8g#/
=52||
*M3/8
[4g#/
16.g#/LL]
32g#/JJk
=53
4g#/
8G#/
==
*-
